X:1
T:Harbour Village (Minato Mura)
T:Harbour Village (Minato Mura)
T:from the anime 'One Piece'
T:Composed by Kōhei Tanaka, Shirō Hamaguchi Arranged by ashleykampta Performed by Tom Brier Transcribed by mlololoer 
T:https://musescore.com/user/19465036/scores/6408422 Transcribed from: https://www.youtube.com/watch?v=22Y251-OuqM 
T:as improvised by Tom Brier
C:Tom Brier
%%score { ( 1 3 ) | ( 2 4 ) }
L:1/8
M:2/4
K:C
V:1 treble nm="Piano" snm="Pno."
V:3 treble 
V:2 bass 
V:4 bass 
V:1
!mf! x/ |[Q:1/4=72]"^Not fast."!mf!!mf! g>g- g2 | g>g- g2 | g x x2 | G2 [fbd'g']2 || %5
 e/^d/e/g/- [Gcg]/e/c/G/ | A/G/A/[Gce]/- [Gce]2 | e/^d/e/-a/- [GAcea]/g/e/f/- | f/ed/- [FAd]2 | %9
[Q:1/4=73] f/e/f/[Aa]/- [Aa]/f/^c/A/ | c/B/c/-[cf]/- [FAcf]2 | A/^G/A/[Ff]/- [Ff]/d/[FB^d] | %12
 [EGce]>[EG]- [EG]/[_E_G]/[DF] | e/^d/e/g/- [Gcg]/e/c/G/ | A/G/A/[Gce]/- [Gce]2 | %15
 e/^d/e/-[ea]/- [GAcea]/g/e/g/ | [Adf][FA]/A/- A/B/c/d/ | [ce]/G/A/[eg]/- [eg]/G/A/[eg]/- | %18
 [eg]/G/[df] [Ace]2 | [_A_e]/d/c/A/ [FAc]/[FAc][=EGc]/- | [EGc]2 z2 || %21
{c^cd^d} [G=ce]>[Gcg]- [Gcg]/e/c/G/ |{G^G} A/{=G^G}A[=Gce]/- [Gce]2 | %23
{c^cd^d} e/[Gg]/e/g/ [A!courtesy!^cea]/g/[Ace]/g/ | .[Adf]/{^d}[Ge][FA=d]/- [FAd]/B/A/F/ | %25
 [Adf]/e/f/[A^ca]/- [Aca]/f/c/A/ | [Fc]/B/c/[FAf]/- [FAf]2 | %27
{FG^G} A/!courtesy!^G/A/[FAf]/- [FAf]/d/^d | [EGce]>[EG]- [EG]/[_E_G]/[DF] | %29
{c^cd^d} e/d/e/[G=cg]/- [Gcg]/e/c |{G^G} A/=G/A/[Gce]/- [Gce]2 | %31
{cd^d} e/d/e/[A^ca]/- [Aca]/g/e/g/ | [Adf]A/A/- A/B/c/d/ | [ce]/G/A/[eg]/- [eg]/G/A/[eg]/- | %34
 [eg]/G/[df] [Ace]2 |{d} _e/d/c/_A/ [FAc]/[FAc][EGc]/- | [EGc]/[CE]/[CE]/C/ [DF][^D^F] | %37
 [eg]/G/A/[eg]/- [eg]/G/A/[eg]/- | [eg]/G/[df] [Ace]2 | [_E_A_e]/d/c/A/ [FAc]/[FAc]G/- | %40
 [EGc] z z2 ||!mf!{A^AB} c/F/=A/c/ [^FB]/^D/[FA]/B/ | A/[EG][Gce]/- [Gce]/G/c/e/ | %43
 [FBf]/[FBd][FBdg]/- [FBdg]/G/B/d/ | [^da]/[eg]{d}[G_Be]/- [GBe]/=d/[GBc]/F/ | %45
 [Ac]/F/A/[^Fd]/- [Fd]/[Fc]/d/^d/ | e/[Gc][Acea]/- [Acea]/A/c/e/ | %47
 [Bb]/g/e/[A^dg]/- [Ad-g]/[Ad^f]/B/G/- | [GBe]/e/^d/e/ [G^Ag]/e/^c/A/ | %49
 [FAd]/F/A/[FBe]/- [FBe]/[Fd]/B/G/ |{^d} e/[Ge]-[G^A^ceg]/- [GAceg]/G/A/g/ | %51
 [Gdf]/[Gdf][B^d^fb]/- [Bdfb]/B/[dfa]/b/ | [ceg]/[ceg][ce^gc']/- [cegc']/c/e/g/ | %53
 [dfad']/[cc'][B^d^fb]/- [Bdfb]/[cc']/[Ada]/[_A_a]/ | [Gg]>[G^cf]- [Gcf]/e/(3A/_A/G/ | %55
 ^F/-[FAce]F/ _e/c/_A/e/ | [FBd]2 z2 ||[Q:1/4=74] [Gce]/^d/e/[Gcg]/- [Gcg]/e/c/G/ | %58
{^G} A/=G/A/[Gce]/- [Gce]2 | [Gce]/^d/e/[^ca]/- [ca]/g/[ce]/g/ | [Af]/d/[Ge]/[FAd]/- [FAd]2 | %61
{Ade} f/e/f/[A^ca]/- [Aca]/f/c/A/ | [FAc]/B/c/[FAf]/- [FAf]2 | %63
 [FA]/^G/A/[FAcf]/- [FAcf]/^c/[Fd]/^d/ | [Ge]/[^D^F]/[EG]/[=FA]/ [EG]/[_E_G]/[=DF]/=G/- | %65
 [Gce]/^d/e/[Gcg]/- [Gcg]/e/c/G/4^G/4 | A/^G/A/[=Gce]/- [Gce]/G/A/c/ | %67
 [Ge]/^d/e/[G^ca]/- [Gca]/g/[Gce]/g/ | [Adf]/{^G}[FA]A/- A/B/c/d/ | %69
 [ce]/G/A/[eg]/- [eg]/G/A/[eg]/- | [eg]/G/[df] [Ace]2 | _e/d/c/_A/ [FAc]/[FAc]G/- | %72
 [EGc] z [cegc']2 || [gc']/c/e/[^gc'd']/- [gc'd']/d/f/g/ | [ege']/_b/.[dd'] [cgbc']>C- | %75
 [CG_Bc]/C/G/[DBd]/- [DBd]/G/[^D^d]/G/ | [E_Be]/G/[Dd] [CGBc]^G/A/- || %77
[K:F][Q:1/4=75]!mf! [Afa]/.[dfad'][cfac']/- [cfac']^G/A/- | %78
 [Afa]/.[dd'][c^fac']/- [cfac']/[cfa]^A/ | =B/[Bfa]/[eg]/B/- [B_e_g]/[Bdf]^A,/ | %80
 =B,/[FA]/B,/[EG]/- [EG]/[_E_G]/[DF]/[^D^d]/ | [EBe]/[Aca][GBceg]/- [GBceg]/[dd']/[cgbc']/[^D^d]/ | %82
 [EBe]/[Aca][GBeg]/- [GBeg]/e/d/c/ | [FBf]/d/c/B/ [F^Gf]/[FGd]F/- | %84
 [FAc]/d/[^DA]/[EBc]/- [EBc]/[EGB][^G^g]/ |!mf! [Acfa]/.[dd'][cfc']/- [cfc']/a/f/[^G^g]/ | %86
 [Aa]/[dfd'][c^fc']/- [cfc']/a/f/d/- | [dgb]/B/d/g/ [A^fa]/[^Ff][GBdg]/- | %88
 [GBdg]/d/B/[F_A_df]/- [FAdf]/[Ee]/[Ff]/[Gg]/ | [Acfa]/[cc'][cd^fad']/- [cdfad']/c'/[ca]/f/ | %90
 [f^g]/a/[fg]/a/ [_B=g]/c/d/[Acf]/- | [Acf]/f/[Ac]/f/ [_A_c]/[GBf][F=Af]/- | %92
 [FAf]/[F^Gd]/^d/[=GBe]/- [GBe]/[EBc][^G^g]/ || %93
[Q:1/4=76]!mf! [Acfa]/.[dd']{^g}[cfac']/- [cfac']/[CFA][^Gg]/ | %94
 [Aa]/.[dfd'][c^fac']/- [cfac']/[cfa][^A,^G]/ | [=B,FA]/^G/[B,FA]/D/ [B,=G]/[B,_G][B,F]/- | %96
 [B,F]/[G,=B,]/[A,C]/[^A,^C]/ [B,D]/[G,B,DG][^D^d]/ | [EBe]/.[Aca][GBg]/- [GBg]/[Ge]/c/A/ | %98
 G/.[Adfa][Af]/- [Af]/d/A | z/ [=Bfa]/[eg]/B/ [df]/[Be]^d/ | %100
 [ce]/f/^f/[GBg]/- [GBg]/[dbd']/[c^gbc']/[^Gg]/ | %101
!mf! [Aa]/.[dfad'][cfac']/- [cfac']/[fa]/4d/4c/[^G^g]/ | [Acfa]/.[dd'][c^fac']/- [cfac']/[cfa]B/- | %103
 [Bdgb]/B/d/b/ [Aa]>[GBdg]- | [GBdg]/G/B/g/ [F_A_df]/[FAdf]/[Gg]/[^G^g]/ | %105
 [Acfa]/.[d^gd'][cac']/- [cac']/[ca]/^f/d/ | [f^g]/a/g/a/ [_B=g]/c/d/[Acf]/- | %107
 [Acf]/f/[Ac]/f/ [_A_c]/[GBf][F=Af]/- | [FAf]/[F_ef]/[Gg]/[^G^g]/ [Aea]/[Bb]/[cc']/[^c^c']/ || %109
[Q:1/4=77]!f! [dbd']/[gd'g'][fbf']/- [fbf']/[gd']/[fb]/g/ | [FBd]/[GBg][FBf]/- [FBf]/[Fd]/B/^G/ | %111
 [FA]/d/A/[Fc]/- [Fc]/[FA]/[E^G]/[_E=G]/ | [D^F]/[EFAe][DFAd]/- [DFAd]/[DFAc]^A,/ | %113
 =B,/-[B,DFA]/C/-[CDFA]/ D/-[DF=B]/F/-[FBd]/ | E/-[EGBce]/F/-[FBf]/ G/-[GBeg]/^G/A/- | %115
 [Acfa][^gd']/[ac']/- [ac']/[^Gd]/[Ac]/G,/ | [^G,D]/[A,C][F,A,C_EF]/- [F,A,CEF]/[FAc_ef][^C^c]/ | %117
 [DBd]/[Ff]/[Bb]/[dfbd']/- [dfbd']/!8va(![fbd'g']d'/- | %118
 [gbd'g']/[ff']/d'/-[f^gd'f']/- [fgd'f']/[dfgd']!8va)!a/ | %119
 [cfc']/g/[Aca]/^G/- [G=B^g]/[=G_B=g]d/- | [^FAd^f]/[_e_e']/{^g}a/[dfd']/- [dfd']<[cfac'] | %121
{Bc^c} d/[FBf]/d/F/- [F^Gf]/[FG=Bd]F/ | [Ac]/[^C^c][D^FAd]/- [DFAd]/=c/A/=F/ | %123
 [F^G]/A/[FG]/A/ [_B,=G]/[B,C][A,CF]/- | %124
 [A,CF]/[A,C_EF]/[G,G]/[^G,^G]/ [A,EFA]/[Cc]/[Ff]/[^C^c]/ || %125
 [DBd]/[Ff]/!8va(![Bb]/[cc']/ [dbd']/[_e_e']/[=e=e']/[ff']/ | %126
 [gbd'g']/[ff'][_a=bd'_a']/- [abd'a']/[fbd'f']/[gg']/[^g^g']/ | %127
 [af'a']/[^c'^c'']/[d'a'd'']/[=b=b']/ [=c'f'a'=c'']/[^g^g']/[ac'f'a']/!8va)![ee']/ | %128
 [fac'f']/[^c^c']/[dfad']/[=B=b]/ [=cfa=c']/[Aa]/[Ff]/[^D^d]/ | %129
 [EBe]/.[GBg][DBd]/- [DBd]/[Ee]/[CGBc]/[^D,^D]/ | %130
 [E,B,E]/[G,B,G][D,G,B,D]/- [D,G,B,D]/[_D,_D]/[C,C] | [F,A,CF]/F/-[FAcf]/F/- [F_A_cf]/[FGBf]B/ | %132
 [FAf]/[^Gd][Ac]/- [Ac]/[Ac_ef][^C^c]/ | %133
 [DFBd]/[Ff]/[Gg]/[Bdfb]/- [Bdfb]/!8va(![cc']/[dd']/[fbd'f']/- | %134
 [fbd'f']/[gg']/[ee']/[fbf']/- [fbf']/[ff']/[gg']/[^g^g']/ | %135
 [aa']{a'b'=b'}c''/c'/{a'_b'=b'} c''/c'/{a'_b'=b'}c''/[^c'^c'']/ | %136
 [d'^f'a'd'']/c''/a'/[c'f'b']/- [c'f'b']/[c'f'a']!8va)!D/ | [B,FA]/G/[B,F]/D/ [_DF_A]/[DFA]/G/F/ | %138
 [CFA]/[Cc]/[^C^c]/[D^FAd]/- [DFAd]/[DFA]=F/ | [F^G]/A/[FG]/A/ [_B,E=G]/[B,C][A,CF]/- | %140
 [A,CF]/[^G,C^G]/[A,A]/{[^D^d]}[Ee]/- [Ee]/[=D^FA=d]d/- | %141
 [df^g]/a/[dfg]/a/ [_Be=g]/[Bc]/d/[Acf]/- | [Acf]/[g_ac'd']f/- [f=ac'f']/!mf!F/G/^G/ || %143
!mf! A/c/[^GAd]/c/ [FB]/f/F/=G/ | [F_A]/[F=B]/c/A/ [F=A]/[FAc]F/ | %145
 ^G/A/[FG]/A/ [_B,E=G]/C/D/[A,CF]/- | [A,CF]{FG^G}A/c/- !fermata![FAcf]2 |] %147
V:2
 x/ | B,>_B,- B,2 | A,>^A,- A,2 | B,/A,/G,/F,/- F,^F, | G,D,,!8vb(! G,,,2!8vb)! || %5
 [C,,G,,E,].[G,CE] [G,,G,].[G,CE] | [C,,C,].[G,CE] [G,,G,][G,CE] | %7
{C,,-} [C,,G,,E,].[G,CE] [^C,,^C,][G,A,^CE] |{D,,-} [D,,A,,F,].[F,A,D]!8vb(! A,,,!8vb)!.[F,A,D] | %9
{D,,-} [D,,A,,F,].[F,A,D] [A,,A,][G,^CE] |{D,,-} [D,,A,,F,].[F,A,D]!8vb(! A,,,!8vb)![F,A,D] | %11
{D,,-} [D,,A,,F,].[F,A,D] [G,,G,].[D,F,G,B,] | %12
{C,,-} [C,,G,,E,][E,G,C]/[G,,G,]/- [G,,G,]/[A,,A,]/[B,,B,] | %13
 [C,E,G,C].[G,CE]!8vb(! G,,,!8vb)!.[G,CE] | [C,,G,,].[G,CE]!8vb(! G,,,!8vb)![G,CE] | %15
{C,,-} [C,,G,,E,].[G,CE]{^C,,-} [C,,E,][G,A,^CE] | %16
{D,,-} [D,,A,,F,].[F,A,D]{^D,,-} [D,,^F,][F,C^D] |{E,,-} [E,,C,G,].[G,CE] [F,,F,].[F,A,D] | %18
 [G,,G,][^G,,^G,]/A,,/- [A,,A,][=G,C] | F,2 G,/G,C,/- | %20
 C,/G,,,/-[G,,,G,,]/A,,,/- [A,,,A,,]/B,,,/-[B,,,B,,]/C,,/- || %21
 [C,,G,,E,].[G,CE]!8vb(! G,,,!8vb)!.[G,CE] | C,,.[G,CE]!8vb(! G,,,!8vb)![G,CE] | %23
 [C,,G,,].[G,CE]{^C,,-} [C,,^C,][G,^CE] |{D,,-} .[D,,A,,F,].[F,A,D]!8vb(! A,,,!8vb)!.[F,A,D] | %25
{D,,-} [D,,A,,F,].[F,A,D] [A,,,A,,][G,^CE] |{D,,-} [D,,A,,F,].[F,A,D]!8vb(! D,,,!8vb)![F,A,D] | %27
 [D,,A,,].[F,A,D] [G,,B,,D,F,][D,F,G,B,]/C,/- | %28
 [C,E,C][E,G,]/[G,,,G,,]/- [G,,,G,,]/[A,,,A,,]/[B,,,B,,] | %29
{C,,-} [C,,G,,E,].[G,CE]!8vb(! G,,,!8vb)![G,CE] | C,,.[G,CE]!8vb(! G,,,!8vb)![G,CE] | %31
{C,,-} [C,,G,,E,].[G,^CE] [^C,,^C,][G,CE] |{D,,-} [D,,A,,F,].[F,A,D] [^D,,^F,].[F,A,^D] | %33
{E,,-} [E,,G,].[G,CE] [F,,F,].[F,A,D] | [G,,G,][^G,,^G,]{A,,-} [A,,A,][=G,C] | %35
{F,,-} [F,,C,_A,][F,A,C] .[G,,G,].[D,F,G,B,] | [C,E,G,C]/[C,,C,]/[C,,C,] [D,,D,][^D,,^D,] | %37
 .[E,,C,E,].[G,CE] [F,,F,].[F,D] | [G,,G,].[^G,,^G,] [A,,A,][=G,C] | F,2 G,<G, | %40
 G,/G,/A,/G,/ E,/D,/C, || [F,,C,].[F,A,C] [^F,,^F,].[^D,F,A,C]/G,,/- | %42
 [G,,E,G,].[E,G,C] C,,[E,G,C] |{G,,,-} [G,,,G,,].[D,F,G,B,] [G,,,G,,][D,F,G,B,] | %44
{C,,-} [C,,G,,E,].[G,CE] C,,.[G,_B,CE] |{F,,-} [F,,C,A,].[F,A,C] [^F,,^D,][^F,C^D]/G,,/- | %46
 [G,,E,].[G,CE] [A,,E,][A,CE]/B,,/- | [B,,E,G,].[G,B,E] [B,,,B,,].[^F,A,B,^D]/E,/- | %48
 [E,B,E]>^C,- [C,G,^A,]2 |{D,,-} [D,,A,,F,].[F,A,D] [G,,D,F,][D,F,G,B,] | %50
{C,,-} [C,,G,,E,].[G,CE] ^C,,[G,^A,^CE] |{D,,-} [D,,F,].[G,B,DF]{^D,,-} [D,,^F,][F,C^D] | %52
{E,,-} [E,,C,G,][G,CE]{E,,-} [E,,E,][G,CE] |{F,,-} [F,,C,A,].[F,A,D] [^F,,^D,].[^F,A,^D]/G,,/- | %54
 [G,,E,][G,CE] [A,,E,][G,A,^C] |{D,,-} [D,,A,,^F,][D,F,A,C] [_A,,_E,_G,]2 | %56
 [G,,F,]/G,/A,/G,/ F,/D,/B,,/G,,/ || C,,.[G,CE]!8vb(! G,,,!8vb)![G,CE] | %58
 .[C,,G,,].[G,CE]!8vb(! G,,,!8vb)!.[G,CE] |{C,,-} .[C,,G,,E,].[G,CE] [^C,,^C,][G,A,^CE]/D,,/- | %60
 [D,,A,,F,]/E,,/-[E,,G,]/F,,/- [F,,D,A,][F,A,D] | .[D,,A,,].[F,A,D]!8vb(! A,,,!8vb)![G,A,^CE] | %62
{D,,-} [D,,A,,F,].[F,A,D]!8vb(! D,,,!8vb)![F,A,D] | %63
{D,,-} [D,,A,,F,].[F,A,D] [G,,D,F,][D,F,G,B,]/C,/- | [C,E,G,C]G, A,B, | %65
{C,,-} .[C,,G,,E,].[G,CE]!8vb(! G,,,!8vb)!.[G,CE] | .[C,,G,,].[G,CE]!8vb(! G,,,!8vb)![G,CE] | %67
{C,,-} [C,,G,,E,].[G,CE]{^C,,-} [C,,E,][G,A,^CE] | [D,,A,,F,].[F,A,D]{^D,,-} [D,,^F,].[F,C^D] | %69
{E,,-} [E,,G,].[G,CE] [F,,F,].[F,A,D] | [G,,G,][^G,,^G,]{A,,-} [A,,A,][=G,C]/F,,/- | %71
 [F,,C,_A,]2 [G,,F,][G,,F,] | [C,G,C].[G,,G,] [C,,C,]2 || C>B,- B,2 | _B,.C DE | E,>D,- D,_D, | %76
 C,D, E,2 ||[K:F] .[F,,C,A,].[A,CF] C,,[A,CF]/F,,/- | %78
 .[F,,C,A,].[_E,,_E,]{D,,-} [D,,A,,^F,][D,F,A,C]/D,,/- | %79
 .[D,,D,].[G,=B,DF]!8vb(! G,,,!8vb)![G,B,F] | .[D,,D,].[G,,,G,,] .[A,,,A,,].[=B,,,=B,,] | %81
{C,,-} [C,,G,,E,].[G,B,CE]!8vb(! G,,,!8vb)![G,B,CE]/C,,/- | [C,,G,,E,].[G,B,CE] [C,,C,][G,B,CE] | %83
 B,2 [^G,D]2 | [A,C].[^F,A,C] [G,B,C][C,,C,] |{F,,-} [F,,C,A,].[A,CF] C,,[A,CF]/F,,/- | %86
 .[F,,C,A,].[A,CF] [D,,D,][D,^F,A,C]/G,,/- | [G,,D,B,].[G,B,D]/A,,/- [A,,^F,A,].[D,F,A,C] | %88
 [B,,B,].[G,B,D] [_C,_C][F,_A,_D] | [C,C].[F,A,C] [D,,A,,D,][D,^F,A,C]/=F,/- | %90
 .[G,,F,].[G,=B,DF]/C,,/- [C,,G,,E,][G,_B,CE] | [F,A,CF]/_E,/-[E,_E]/D,/- [D,D]/_D,/-[D,_D]/C,/- | %92
 [C,C]/_C,/-[C,_C]/B,,/- [B,,B,]/C,,/-[C,,=C,]/F,,/- || .[F,,C,A,].[A,CF] C,,[F,A,C]/F,,/- | %94
 .[F,,C,A,].[_E,,_E,]{D,,-} [D,,A,,^F,][D,F,A,C] | .[G,,D,F,].[D,F,G,]!8vb(! G,,,!8vb)![D,F,G,] | %96
 [G,,,G,,]/[G,,,G,,]/[A,,,A,,]/[^A,,,^A,,]/ [=B,,,=B,,][G,,,G,,]/C,,/- | %97
 [C,,G,,E,].[G,B,CE] [C,,G,,C,].[G,B,CE]/[^C,,^C,]/ | %98
 .[D,,D,].[F,A,D]!8vb(! D,,,!8vb)!.[F,A,D]/G,,/- | %99
 .[G,,D,F,].[D,F,G,=B,]!8vb(! G,,,!8vb)![D,F,G,B,]/C,/- | %100
 [C,G,C]/[D,D]/[^D,^D]/[E,CE]/- [E,CE][C,,C,] |{F,,-} [F,,C,A,].[A,CF] C,,[A,CF]/F,,/- | %102
 [F,,C,A,]/_E,,/-.[E,,B,,G,]/D,,/- [D,,A,,^F,][D,F,A,C]/G,/- | %103
 [G,,G,].[G,B,D]/A,,/- [A,,A,].[^F,A,CD] | [B,,B,].[G,B,D]/_D,/- [D,_D][D,B,D]/C,/- | %105
 [C,C]/.[B,,B,][A,,A,]/- [A,,A,][D,^F,A,C]/=F,/- | .[G,,F,].[G,=B,DF]/C,,/- [C,,G,,E,][G,_B,CE] | %107
 [F,,F,]/_E,/-[E,_E]/D,/- [D,D]/_D,/-[D,_D]/C,/- | [C,C][F,,F,] [_E,,_E,][C,,C,] || %109
{B,,,-} [B,,,F,,D,].[F,B,D]!8vb(! F,,,!8vb)!.[F,B,D]/B,,,/- | %110
 [B,,,F,,D,].[F,B,D] [D,,B,,D,][F,B,D]/C,,/- | %111
 .[C,,C,].[F,A,C] [F,,C,F,]/[F,,C,F,]/[E,,E,]/[_E,,_E,]/ | %112
 [D,,A,,D,].[D,^F,A,C]!8vb(! D,,,!8vb)!.[D,F,A,C] | [G,,,D,,G,,][A,,,A,,] [=B,,,=B,,][G,,,G,,] | %114
 [C,,G,,C,][D,,D,] [E,,E,][C,,C,] |{F,,-} .[F,,C,A,][I:staff -1]=B/c/- c/[I:staff +1]=B,/C | %116
 =B,,/C,[F,,C,_E,]/- [F,,C,E,][F,,,F,,] |{B,,,-} [B,,,F,,D,][F,B,D] [F,,,F,,][F,B,D]/B,,,/- | %118
 [B,,,F,,D,].[F,B,D] [=B,,,=B,,][F,^G,=B,D]/C,,/- | %119
 [C,,C,]/F,,/-[F,,C,F,]/E,,/- [E,,=B,,E,]/_E,,/-[E,,_B,,_E,]/D,,/- | %120
 [D,,A,,^F,].[D,F,A,C]!8vb(! D,,,!8vb)![D,F,A,C] | .[B,,,F,,B,,].[F,B,D] [=B,,,=B,,][F,^G,=B,D] | %122
 [C,,C,]/[_E,,_E,][D,,A,,D,]/- [D,,A,,D,][D,^F,A,C]/=F,/- | %123
 [G,,F,][D,F,G,]/C,,/- [C,,G,,E,].[C,E,G,] | [F,,C,]>F,,- [F,,C,_E,][F,,,F,,]/B,,,/- || %125
 [B,,,F,,D,][F,B,D] [F,,,F,,][F,B,D]/B,,,/- | [B,,,B,,].[F,B,D] [=B,,,=B,,].[F,^G,=B,D]/C,,/- | %127
 z/!8va(! [^C^c]/[Dd]/[=B,=B]/ [=C=c]/[^G,^G]/[A,A]/!8va)![E,E]/ | %128
 [F,F]/[^C,^C]/[D,D]/[=B,,=B,]/ [=C,=C]/[A,,A,]/[F,,F,]/[^F,,^F,]/ | %129
 .[G,,G,].[G,B,CE] [C,,C,].[G,B,CE]/=B,,/ | .[E,,C,][C,,C,] D,,E,,/C,,/ | F,,[F,_E] [F,D][F,_D] | %132
 [F,C]/[F,=B,][F,C]/- [F,C][F,C_E] |{B,,,-} [B,,,F,,D,].[F,B,D] [F,,,F,,][F,B,D]/B,,,/- | %134
 [B,,,F,,D,].[F,B,D] [=B,,,=B,,].[F,^G,=B,D]/C,,/- | %135
 [C,,C,]/F,,/-[F,,C,F,]/E,,/- [E,,E,]/_E,,/-[E,,_E,]/D,,/- | %136
 [D,,A,,^F,].[D,F,A,C]!8vb(! D,,,!8vb)!.[D,F,A,C] | %137
 .[B,,,F,,B,,].[B,,,F,,B,,] .[_D,,_A,,_D,].[D,,A,,D,] | %138
 .[C,,C,].[_E,,_E,] [D,,A,,D,][D,^F,A,]/=F,/- | [G,,F,]/D,/-[G,,D,F,]/C,,/- [C,,G,,C,][C,E,G,] | %140
 [F,,C,F,]/_E,,/-[E,,_E,]/D,,/- [D,,A,,D,][D,^F,A,C]/=F,/- | %141
 [G,,F,][G,,D,F,]/C,,/- [C,,G,,E,][G,B,CE] | [F,A,CF][C,,C,]/!8vb(!F,,,/- [F,,,F,,]2!8vb)! || %143
 [_E,_E]>D,- [D,B,D]2 | [_D,B,_D]>C,- [C,C]2 | [G,,D,F,]/D,,/-[D,,D,]/C,,/- [C,,G,,C,][C,E,G,] | %146
 [F,,C,F,].[C,,C,] !fermata![F,,,F,,]2 |] %147
V:3
 x/ |{^c} d/G/d/_d/- d/G/d | c/G/c/^c/- c/G/c | d/c/B/A/- A/B/A | x4 || [Gc]>[Gc]- x2 | x4 | %7
 [Gc]>[GA^ce]- x [Gc] | [Ad]>[FA]- x2 | [Ad]3/2 x5/2 | [FA]>[FA]- x2 | F x3 | x4 | [Gc]>[Gc]- x2 | %14
 x4 | [Gc]>[GA^c]- x [Gc] | x4 | x4 | x4 | _E2 x2 | x4 || x4 | x4 | x4 | x4 | x4 | x4 | x4 | x4 | %29
 x4 | x4 | x4 | x4 | x4 | x4 | x4 | x4 | x4 | x4 | x4 | x4 || x4 | x4 | x4 | x4 | x4 | x4 | x4 | %48
 x/ G3/2 x2 | x4 | x4 | x4 | x4 | x4 | z/ [ce] x5/2 | x4 | x4 || x4 | x2 z({e'c')a} g | x4 | %60
 x2 z({d'a)f} d | x4 | x2 z/ (f/[ac'f']) | x4 | x4 | x4 | x4 | x4 | x4 | x4 | x4 | [F_A]2 x2 | %72
 x4 || x4 | x4 | x4 | x4 ||[K:F] x4 | x4 | x4 | x4 | x4 | x5/2 G3/2 | x4 | x4 | x4 | x5/2 c x/ | %87
 x4 | x4 | x4 | =B x3 | x4 | x4 || x4 | x4 | x4 | x4 | x4 | x4 | x4 | x4 | x4 | x4 | %103
 x2 z/ [c^f] x/ | x4 | x4 | =BB x2 | x4 | x4 || x4 | x4 | x4 | x4 | x4 | x4 | x4 | x4 | %117
 x5/2!8va(! x3/2 | x7/2!8va)! x/ | x4 | x4 | x4 | x4 | =B,2 x2 | x4 || x!8va(! x3 | x4 | %127
 x7/2!8va)! x/ | x4 | x4 | x4 | x4 | x4 | x5/2!8va(! x3/2 | x4 | x4 | x7/2!8va)! x/ | x4 | x4 | %139
 =B,B, x2 | x4 | =BB x2 | x4 || x4 | x4 | =B,B, x2 | x4 |] %147
V:4
 x/ | x4 | x4 | x4 | x2!8vb(! x2!8vb)! || x4 | x4 | x4 | x2!8vb(! x!8vb)! x | x4 | %10
 x2!8vb(! x!8vb)! x | x4 | x4 | x2!8vb(! x!8vb)! x | x2!8vb(! x!8vb)! x | x4 | x4 | x4 | x4 | x4 | %20
 x4 || x2!8vb(! x!8vb)! x | x2!8vb(! x!8vb)! x | x4 | x2!8vb(! x!8vb)! x | x4 | %26
 x2!8vb(! x!8vb)! x | x4 | x4 | x2!8vb(! x!8vb)! x | x2!8vb(! x!8vb)! x | x4 | x4 | x4 | x4 | x4 | %36
 x4 | x4 | x4 | x4 | C,2 x2 || x4 | x4 | x4 | x4 | x4 | x4 | x4 | x4 | x4 | x4 | x4 | x4 | x4 | %54
 x4 | x4 | x4 || x2!8vb(! x!8vb)! x | x2!8vb(! x!8vb)! x | x4 | x4 | x2!8vb(! x!8vb)! x | %62
 x2!8vb(! x!8vb)! x | x4 | x4 | x2!8vb(! x!8vb)! x | x2!8vb(! x!8vb)! x | x4 | x4 | x4 | x4 | x4 | %72
 x4 || x4 | x4 | x4 | x4 ||[K:F] x4 | x4 | x2!8vb(! x!8vb)! x | x4 | x2!8vb(! x!8vb)! x | x4 | x4 | %84
 x4 | x4 | x4 | x4 | x4 | x4 | x4 | x4 | x4 || x4 | x4 | x2!8vb(! x!8vb)! x | x4 | x4 | %98
 x2!8vb(! x!8vb)! x | x2!8vb(! x!8vb)! x | x4 | x4 | x4 | x4 | x4 | x4 | x4 | x4 | x4 || %109
 x2!8vb(! x!8vb)! x | x4 | x4 | x2!8vb(! x!8vb)! x | x4 | x4 | x4 | x4 | x4 | x4 | x4 | %120
 x2!8vb(! x!8vb)! x | x4 | x4 | x4 | x4 || x4 | x4 | [C,,C,]!8va(! x5/2!8va)! x/ | x4 | x4 | x4 | %131
 x4 | x4 | x4 | x4 | x4 | x2!8vb(! x!8vb)! x | x4 | x4 | x4 | x4 | x4 | x3/2!8vb(! x5/2!8vb)! || %143
 x4 | x4 | x4 | x4 |] %147

